**harm	**harte	**silbe	**rhyme	**timestamp	**phrase	**leadinstrument	**kern
*M4/4	*M4/4	*	*	*	*	*	*
*	*	*	*	*	*	*	*
*	*	*	*	*	*	*	*
*C:	*C:	*	*	*	*	*	*C:
*	*	*	*	*	*	*	*
*	*	*	*	*	*	*	*
1r;	N	.	.	0	.	r	1r;
=1	=1	=1	=1	=1	=1	=1	=1
*>Letter>A2	*>Letter>A2	*>Letter>A2	*>Letter>A2	*>Letter>A2	*>Letter>A2	*>Letter>A2	*>Letter>A2
*>Label>Intro	*>Label>Intro	*>Label>Intro	*>Label>Intro	*>Label>Intro	*>Label>Intro	*>Label>Intro	*>Label>Intro
1r	N	.	.	0.302	newline	drums	1r
=2	=2	=2	=2	=2	=2	=2	=2
1r	N	.	.	1.916	.	drums	1r
=3	=3	=3	=3	=3	=3	=3	=3
2I	C:maj	.	.	3.529	newline	guitar	1C 1e 1g
2vi	A:min	.	.	5.021	.	guitar	2A 2cc 2ee
=4	=4	=4	=4	=4	=4	=4	=4
2IV	F:maj	.	.	6.512	.	guitar	1F 1a 1cc
2V	G:maj	.	.	8.003	.	guitar	2G 2b 2dd
=5	=5	=5	=5	=5	=5	=5	=5
2I	C:maj	.	.	9.494	.	guitar	1C 1e 1g
2vi	A:min	.	.	10.985	.	guitar	2A 2cc 2ee
=6	=6	=6	=6	=6	=6	=6	=6
2IV	F:maj	.	.	12.476	.	guitar	1F 1a 1cc
2V	G:maj	.	.	13.967	.	guitar	2G 2b 2dd
=7	=7	=7	=7	=7	=7	=7	=7
*>Letter>B	*>Letter>B	*>Letter>B	*>Letter>B	*>Letter>B	*>Letter>B	*>Letter>B	*>Letter>B
*>Label>Verse	*>Label>Verse	*>Label>Verse	*>Label>Verse	*>Label>Verse	*>Label>Verse	*>Label>Verse	*>Label>Verse
2I	C:maj	Oh	A	15.458	newline	voice	2C 2e 2g
.	.	.	.	.	.	.	.
.	.	Oh	A	.	.	.	.
.	.	Oh	A	.	.	.	.
2vi	A:min	Oh	A	16.949	.	voice	2A 2cc 2ee
.	.	Oh	A	.	.	.	.
.	.	_	.	.	.	.	.
.	.	_	.	.	.	.	.
.	.	Oh	A	.	.	.	.
.	.	_	.	.	.	.	.
=8	=8	=8	=8	=8	=8	=8	=8
2IV	F:maj	_	.	18.44	.	voice	2F 2a 2cc
.	.	.	.	.	.	.	.
.	.	.	.	.	.	.	.
2V	G:maj	You	.	19.931	.	voice	2G 2b 2dd
.	.	don't	.	.	.	.	.
.	.	have	.	.	.	.	.
.	.	to	.	.	.	.	.
.	.	go	A	.	.	.	.
=9	=9	=9	=9	=9	=9	=9	=9
2I	C:maj	_	.	21.421	.	voice	2C 2e 2g
.	.	oh	A	.	.	.	.
.	.	.	.	.	.	.	.
.	.	.	.	.	.	.	.
.	.	Oh	A	.	.	.	.
2vi	A:min	Oh	A	22.912	.	voice	2A 2cc 2ee
.	.	oh	A	.	.	.	.
.	.	_	.	.	.	.	.
.	.	_	.	.	.	.	.
.	.	oh	A	.	.	.	.
.	.	_	.	.	.	.	.
=10	=10	=10	=10	=10	=10	=10	=10
2IV	F:maj	_	.	24.403	.	voice	2F 2a 2cc
.	.	.	.	.	.	.	.
.	.	.	.	.	.	.	.
2V	G:maj	You	.	25.894	.	voice	2G 2b 2dd
.	.	don't	.	.	.	.	.
.	.	have	.	.	.	.	.
.	.	to	.	.	.	.	.
.	.	go	A	.	.	.	.
=11	=11	=11	=11	=11	=11	=11	=11
2I	C:maj	_	.	27.385	newline	voice	2C 2e 2g
.	.	oh	A	.	.	.	.
.	.	.	.	.	.	.	.
.	.	Oh	A	.	.	.	.
2vi	A:min	Oh	A	28.866	.	voice	2A 2cc 2ee
.	.	.	.	.	.	.	.
.	.	Oh	A	.	.	.	.
.	.	Oh	A	.	.	.	.
.	.	_	.	.	.	.	.
=12	=12	=12	=12	=12	=12	=12	=12
2IV	F:maj	_	.	30.348	.	voice	2F 2a 2cc
.	.	.	.	.	.	.	.
.	.	.	.	.	.	.	.
2V	G:maj	You	.	31.83	.	voice	2G 2b 2dd
.	.	don't	.	.	.	.	.
.	.	have	.	.	.	.	.
.	.	to	.	.	.	.	.
=13	=13	=13	=13	=13	=13	=13	=13
1vi	A:min	go	A	33.312	.	voice	1A 1cc 1ee
.	.	_	.	.	.	.	.
.	.	_	.	.	.	.	.
.	.	_	.	.	.	.	.
=14	=14	=14	=14	=14	=14	=14	=14
1vi	A:min	.	.	36.275	.	voice	1A 1cc 1ee
=15	=15	=15	=15	=15	=15	=15	=15
2I	C:maj	I	B	39.239	newline	voice	2C 2e 2g
.	.	.	.	.	.	.	.
.	.	I	B	.	.	.	.
.	.	I	B	.	.	.	.
2vi	A:min	I	B	40.726	.	voice	2A 2cc 2ee
.	.	I	B	.	.	.	.
.	.	_	.	.	.	.	.
.	.	_	.	.	.	.	.
.	.	I	B	.	.	.	.
.	.	_	.	.	.	.	.
=16	=16	=16	=16	=16	=16	=16	=16
2IV	F:maj	_	.	42.213	.	voice	2F 2a 2cc
.	.	.	.	.	.	.	.
2V	G:maj	All	.	43.699	.	voice	2G 2b 2dd
.	.	those	.	.	.	.	.
.	.	tears	.	.	.	.	.
.	.	I	B	.	.	.	.
=17	=17	=17	=17	=17	=17	=17	=17
2I	C:maj	cry	B	45.186	.	voice	2C 2e 2g
.	.	_	.	.	.	.	.
.	.	.	.	.	.	.	.
.	.	I	B	.	.	.	.
2vi	A:min	I	B	46.673	.	voice	2A 2cc 2ee
.	.	I	B	.	.	.	.
.	.	_	.	.	.	.	.
.	.	I	B	.	.	.	.
=18	=18	=18	=18	=18	=18	=18	=18
2IV	F:maj	_	.	48.16	.	voice	2F 2a 2cc
.	.	.	.	.	.	.	.
2V	G:maj	All	.	49.646	.	voice	2G 2b 2dd
.	.	those	.	.	.	.	.
.	.	tears	.	.	.	.	.
.	.	I	B	.	.	.	.
=19	=19	=19	=19	=19	=19	=19	=19
2I	C:maj	cry	B	51.133	newline	voice	2q2.250000C 2q2.250000e 2q2.250000g
.	.	_	.	.	.	.	.
.	.	.	.	.	.	.	.
.	.	Oh	A	.	.	.	.
2vi	A:min	.	.	52.601	.	voice	4..A 4..cc 4..ee
.	.	Oh	A	.	.	.	.
.	.	I	B	.	.	.	.
=20	=20	=20	=20	=20	=20	=20	=20
2IV	F:maj	I	B	54.068	.	voice	2F 2a 2cc
.	.	_	.	.	.	.	.
.	.	.	.	.	.	.	.
2V	G:maj	Ba-	.	55.536	.	voice	2G 2b 2dd
.	.	-by	.	.	.	.	.
.	.	please	.	.	.	.	.
.	.	_	.	.	.	.	.
=21	=21	=21	=21	=21	=21	=21	=21
1vi	A:min	.	.	57.004	.	voice	1A 1cc 1ee
.	.	don't	.	.	.	.	.
.	.	go	A	.	.	.	.
.	.	_	.	.	.	.	.
=22	=22	=22	=22	=22	=22	=22	=22
1vi	A:min	.	.	59.939	.	voice	1A 1cc 1ee
=23	=23	=23	=23	=23	=23	=23	=23
*>Letter>C	*>Letter>C	*>Letter>C	*>Letter>C	*>Letter>C	*>Letter>C	*>Letter>C	*>Letter>C
*>Label>Bridge	*>Label>Bridge	*>Label>Bridge	*>Label>Bridge	*>Label>Bridge	*>Label>Bridge	*>Label>Bridge	*>Label>Bridge
1vi	A:min	.	.	62.874	newline	voice	1A 1cc 1ee
.	.	.	.	.	.	.	.
.	.	When	.	.	.	.	.
.	.	I	.	.	.	.	.
.	.	read	.	.	.	.	.
.	.	the	.	.	.	.	.
.	.	let-	.	.	.	.	.
.	.	_	.	.	.	.	.
.	.	-ter	.	.	.	.	.
.	.	that	.	.	.	.	.
.	.	you	.	.	.	.	.
=24	=24	=24	=24	=24	=24	=24	=24
1V	G:maj	wrote	C	65.801	.	voice	1G 1b 1dd
.	.	me	.	.	.	.	.
.	.	it	.	.	.	.	.
.	.	made	.	.	.	.	.
.	.	me	.	.	.	.	.
.	.	mad	D	.	.	.	.
.	.	mad	D	.	.	.	.
.	.	mad	D	.	.	.	.
.	.	_	.	.	.	.	.
=25	=25	=25	=25	=25	=25	=25	=25
1vi	A:min	.	.	68.728	.	voice	1A 1cc 1ee
.	.	.	.	.	.	.	.
.	.	When	.	.	.	.	.
.	.	I	.	.	.	.	.
.	.	read	.	.	.	.	.
.	.	the	.	.	.	.	.
.	.	words	.	.	.	.	.
.	.	that	.	.	.	.	.
.	.	it	.	.	.	.	.
=26	=26	=26	=26	=26	=26	=26	=26
1V	G:maj	_	.	71.655	.	voice	1G 1b 1dd
.	.	told	C	.	.	.	.
.	.	_	.	.	.	.	.
.	.	me	.	.	.	.	.
.	.	you	.	.	.	.	.
.	.	made	.	.	.	.	.
.	.	me	.	.	.	.	.
.	.	sad	D	.	.	.	.
.	.	sad	D	.	.	.	.
.	.	sad	D	.	.	.	.
.	.	_	.	.	.	.	.
=27	=27	=27	=27	=27	=27	=27	=27
1vi	A:min	.	.	74.583	newline	voice	1A 1cc 1ee
.	.	.	.	.	.	.	.
.	.	But	.	.	.	.	.
.	.	I	.	.	.	.	.
.	.	still	.	.	.	.	.
.	.	_	.	.	.	.	.
.	.	love	.	.	.	.	.
.	.	you	.	.	.	.	.
.	.	so	A	.	.	.	.
.	.	_	.	.	.	.	.
=28	=28	=28	=28	=28	=28	=28	=28
1V	G:maj	.	.	77.514	.	voice	1G 1b 1dd
.	.	.	.	.	.	.	.
.	.	I	.	.	.	.	.
.	.	can't	.	.	.	.	.
.	.	let	.	.	.	.	.
.	.	you	.	.	.	.	.
.	.	go	A	.	.	.	.
.	.	_	.	.	.	.	.
=29	=29	=29	=29	=29	=29	=29	=29
1IV	F:maj	.	.	80.445	.	voice	1F 1a 1cc
.	.	.	.	.	.	.	.
.	.	I	.	.	.	.	.
.	.	love	.	.	.	.	.
.	.	_	.	.	.	.	.
.	.	you	.	.	.	.	.
.	.	.	.	.	.	.	.
=30	=30	=30	=30	=30	=30	=30	=30
1V	G:maj	.	.	83.376	.	voice	1G 1b 1dd
.	.	Ooh	.	.	.	.	.
.	.	.	.	.	.	.	.
.	.	ba-	.	.	.	.	.
.	.	-by	.	.	.	.	.
.	.	I	.	.	.	.	.
.	.	love	.	.	.	.	.
.	.	ya	.	.	.	.	.
.	.	_	.	.	.	.	.
=31	=31	=31	=31	=31	=31	=31	=31
*>Letter>B	*>Letter>B	*>Letter>B	*>Letter>B	*>Letter>B	*>Letter>B	*>Letter>B	*>Letter>B
*>Label>Verse	*>Label>Verse	*>Label>Verse	*>Label>Verse	*>Label>Verse	*>Label>Verse	*>Label>Verse	*>Label>Verse
2I	C:maj	Oh	.	86.307	newline	voice	2C 2e 2g
.	.	oh	.	.	.	.	.
.	.	oh	.	.	.	.	.
2vi	A:min	oh	.	87.763	.	voice	2A 2cc 2ee
.	.	oh	.	.	.	.	.
.	.	_	.	.	.	.	.
.	.	oh	.	.	.	.	.
=32	=32	=32	=32	=32	=32	=32	=32
2IV	F:maj	_	.	89.219	.	voice	2F 2a 2cc
.	.	.	.	.	.	.	.
2V	G:maj	Ev-	.	90.675	.	voice	2G 2b 2dd
.	.	-ery	.	.	.	.	.
.	.	move	.	.	.	.	.
.	.	I	.	.	.	.	.
=33	=33	=33	=33	=33	=33	=33	=33
2I	C:maj	make	.	92.131	.	voice	2C 2e 2g
.	.	_	.	.	.	.	.
.	.	.	.	.	.	.	.
.	.	.	.	.	.	.	.
.	.	Oh	.	.	.	.	.
2vi	A:min	Oh	.	93.587	.	voice	2A 2cc 2ee
.	.	Oh	.	.	.	.	.
.	.	Oh	.	.	.	.	.
.	.	_	.	.	.	.	.
=34	=34	=34	=34	=34	=34	=34	=34
2IV	F:maj	_	.	95.043	.	voice	2F 2a 2cc
.	.	.	.	.	.	.	.
.	.	Oh	.	.	.	.	.
2V	G:maj	_	.	96.498	.	voice	2G 2b 2dd
.	.	ev-	.	.	.	.	.
.	.	-ery	.	.	.	.	.
.	.	move	.	.	.	.	.
.	.	_	.	.	.	.	.
.	.	I	.	.	.	.	.
=35	=35	=35	=35	=35	=35	=35	=35
2I	C:maj	_	.	97.954	newline	voice	2C 2e 2g
.	.	make	.	.	.	.	.
.	.	_	.	.	.	.	.
.	.	_	.	.	.	.	.
.	.	.	.	.	.	.	.
.	.	ache	.	.	.	.	.
2vi	A:min	_	.	99.424	.	voice	2A 2cc 2ee
.	.	_	.	.	.	.	.
.	.	_	.	.	.	.	.
.	.	_	.	.	.	.	.
=36	=36	=36	=36	=36	=36	=36	=36
2IV	F:maj	.	.	100.895	.	voice	2F 2a 2cc
.	.	.	.	.	.	.	.
.	.	Oh	.	.	.	.	.
2V	G:maj	_	.	102.365	.	voice	2G 2b 2dd
.	.	ba-	.	.	.	.	.
.	.	-by	.	.	.	.	.
.	.	_	.	.	.	.	.
.	.	please	.	.	.	.	.
.	.	_	.	.	.	.	.
=37	=37	=37	=37	=37	=37	=37	=37
1vi	A:min	.	.	103.835	.	voice	1A 1cc 1ee
.	.	don't	.	.	.	.	.
.	.	go	.	.	.	.	.
.	.	_	.	.	.	.	.
=38	=38	=38	=38	=38	=38	=38	=38
1vi	A:min	.	.	106.775	.	voice	1A 1cc 1ee
=39	=39	=39	=39	=39	=39	=39	=39
2I	C:maj	I	.	109.715	newline	voice	2C 2e 2g
.	.	I	.	.	.	.	.
.	.	I	.	.	.	.	.
2vi	A:min	I	.	111.196	.	voice	2A 2cc 2ee
.	.	I	.	.	.	.	.
.	.	_	.	.	.	.	.
.	.	I	.	.	.	.	.
.	.	_	.	.	.	.	.
=40	=40	=40	=40	=40	=40	=40	=40
2IV	F:maj	_	.	112.677	.	voice	2F 2a 2cc
.	.	.	.	.	.	.	.
.	.	.	.	.	.	.	.
.	.	You	.	.	.	.	.
2V	G:maj	hurt	.	114.158	.	voice	2G 2b 2dd
.	.	me	.	.	.	.	.
.	.	to	.	.	.	.	.
.	.	my	.	.	.	.	.
=41	=41	=41	=41	=41	=41	=41	=41
2I	C:maj	soul	A	115.639	.	voice	2C 2e 2g
.	.	_	.	.	.	.	.
.	.	_	.	.	.	.	.
.	.	Oh	A	.	.	.	.
.	.	_	.	.	.	.	.
2vi	A:min	_	.	117.12	.	voice	2A 2cc 2ee
.	.	oh	.	.	.	.	.
.	.	_	.	.	.	.	.
.	.	oh	.	.	.	.	.
.	.	oh	.	.	.	.	.
=42	=42	=42	=42	=42	=42	=42	=42
2IV	F:maj	_	.	118.601	.	voice	2F 2a 2cc
.	.	.	.	.	.	.	.
.	.	.	.	.	.	.	.
.	.	You	.	.	.	.	.
2V	G:maj	_	.	120.082	.	voice	2G 2b 2dd
.	.	hurt	.	.	.	.	.
.	.	me	.	.	.	.	.
.	.	to	.	.	.	.	.
.	.	my	.	.	.	.	.
=43	=43	=43	=43	=43	=43	=43	=43
2I	C:maj	_	.	121.563	newline	voice	2C 2e 2g
.	.	soul	A	.	.	.	.
.	.	_	.	.	.	.	.
.	.	_	.	.	.	.	.
.	.	.	.	.	.	.	.
.	.	oh	A	.	.	.	.
.	.	_	.	.	.	.	.
2vi	A:min	_	.	123.001	.	voice	2A 2cc 2ee
.	.	oh	A	.	.	.	.
=44	=44	=44	=44	=44	=44	=44	=44
2IV	F:maj	_	.	124.439	.	voice	2F 2a 2cc
.	.	_	.	.	.	.	.
.	.	_	.	.	.	.	.
.	.	.	.	.	.	.	.
2V	G:maj	dar-	.	125.877	.	voice	2G 2b 2dd
.	.	-ling	.	.	.	.	.
.	.	please	.	.	.	.	.
=45	=45	=45	=45	=45	=45	=45	=45
1vi	A:min	.	.	127.315	.	voice	1A 1cc 1ee
.	.	don't	.	.	.	.	.
.	.	go	A	.	.	.	.
.	.	_	.	.	.	.	.
=46	=46	=46	=46	=46	=46	=46	=46
1vi	A:min	.	.	130.191	.	voice	1A 1cc 1ee
.	.	.	.	.	.	.	.
=47	=47	=47	=47	=47	=47	=47	=47
*>Letter>C	*>Letter>C	*>Letter>C	*>Letter>C	*>Letter>C	*>Letter>C	*>Letter>C	*>Letter>C
*>Label>Bridge	*>Label>Bridge	*>Label>Bridge	*>Label>Bridge	*>Label>Bridge	*>Label>Bridge	*>Label>Bridge	*>Label>Bridge
1vi	A:min	.	.	133.067	newline	voice	1A 1cc 1ee
.	.	.	.	.	.	.	.
.	.	When	.	.	.	.	.
.	.	I	.	.	.	.	.
.	.	read	.	.	.	.	.
.	.	the	.	.	.	.	.
.	.	let-	.	.	.	.	.
.	.	_	.	.	.	.	.
.	.	-ter	.	.	.	.	.
.	.	you	.	.	.	.	.
=48	=48	=48	=48	=48	=48	=48	=48
1V	G:maj	_	.	135.968	.	voice	1G 1b 1dd
.	.	sent	.	.	.	.	.
.	.	me	.	.	.	.	.
.	.	you	.	.	.	.	.
.	.	made	.	.	.	.	.
.	.	me	.	.	.	.	.
.	.	mad	C	.	.	.	.
.	.	mad	C	.	.	.	.
.	.	mad	C	.	.	.	.
.	.	_	.	.	.	.	.
=49	=49	=49	=49	=49	=49	=49	=49
1vi	A:min	.	.	138.869	.	voice	1A 1cc 1ee
.	.	.	.	.	.	.	.
.	.	When	.	.	.	.	.
.	.	I	.	.	.	.	.
.	.	read	.	.	.	.	.
.	.	the	.	.	.	.	.
.	.	news	.	.	.	.	.
.	.	that	.	.	.	.	.
.	.	it	.	.	.	.	.
=50	=50	=50	=50	=50	=50	=50	=50
1V	G:maj	_	.	141.77	.	voice	1G 1b 1dd
.	.	broke	.	.	.	.	.
.	.	me	.	.	.	.	.
.	.	you	.	.	.	.	.
.	.	made	.	.	.	.	.
.	.	me	.	.	.	.	.
.	.	sad	C	.	.	.	.
.	.	sad	C	.	.	.	.
.	.	sad	C	.	.	.	.
.	.	_	.	.	.	.	.
=51	=51	=51	=51	=51	=51	=51	=51
1vi	A:min	.	.	144.672	newline	voice	1A 1cc 1ee
.	.	.	.	.	.	.	.
.	.	But	.	.	.	.	.
.	.	I	.	.	.	.	.
.	.	still	.	.	.	.	.
.	.	_	.	.	.	.	.
.	.	love	.	.	.	.	.
.	.	you	.	.	.	.	.
.	.	so	A	.	.	.	.
=52	=52	=52	=52	=52	=52	=52	=52
1V	G:maj	.	.	147.567	.	voice	1G 1b 1dd
.	.	and	.	.	.	.	.
.	.	I	.	.	.	.	.
.	.	can't	.	.	.	.	.
.	.	let	.	.	.	.	.
.	.	you	.	.	.	.	.
.	.	go	A	.	.	.	.
.	.	_	.	.	.	.	.
.	.	.	.	.	.	.	.
=53	=53	=53	=53	=53	=53	=53	=53
1IV	F:maj	.	.	150.462	.	voice	1F 1a 1cc
.	.	I	.	.	.	.	.
.	.	love	.	.	.	.	.
.	.	_	.	.	.	.	.
.	.	you	.	.	.	.	.
.	.	_	.	.	.	.	.
.	.	.	.	.	.	.	.
.	.	.	.	.	.	.	.
=54	=54	=54	=54	=54	=54	=54	=54
1V	G:maj	.	.	153.357	.	voice	1G 1b 1dd
.	.	Ooh	.	.	.	.	.
.	.	.	.	.	.	.	.
.	.	uh	.	.	.	.	.
.	.	ba-	.	.	.	.	.
.	.	-by	.	.	.	.	.
.	.	I	.	.	.	.	.
.	.	love	.	.	.	.	.
.	.	ya	.	.	.	.	.
.	.	_	.	.	.	.	.
=55	=55	=55	=55	=55	=55	=55	=55
*>Letter>B	*>Letter>B	*>Letter>B	*>Letter>B	*>Letter>B	*>Letter>B	*>Letter>B	*>Letter>B
*>Label>Verse	*>Label>Verse	*>Label>Verse	*>Label>Verse	*>Label>Verse	*>Label>Verse	*>Label>Verse	*>Label>Verse
2I	C:maj	.	.	156.252	newline	guitar	1C 1e 1g
2vi	A:min	.	.	157.725	.	guitar	2A 2cc 2ee
=56	=56	=56	=56	=56	=56	=56	=56
2IV	F:maj	.	.	159.198	.	guitar	1F 1a 1cc
2V	G:maj	.	.	160.672	.	guitar	2G 2b 2dd
=57	=57	=57	=57	=57	=57	=57	=57
2I	C:maj	.	.	162.145	.	guitar	1C 1e 1g
2vi	A:min	.	.	163.618	.	guitar	2A 2cc 2ee
=58	=58	=58	=58	=58	=58	=58	=58
2IV	F:maj	.	.	165.091	.	guitar	1F 1a 1cc
2V	G:maj	.	.	166.565	.	guitar	2G 2b 2dd
=59	=59	=59	=59	=59	=59	=59	=59
2I	C:maj	.	.	168.038	newline	guitar	1C 1e 1g
2vi	A:min	.	.	169.484	.	guitar	2A 2cc 2ee
=60	=60	=60	=60	=60	=60	=60	=60
2IV	F:maj	.	.	170.93	.	guitar	1F 1a 1cc
2V	G:maj	.	.	172.376	.	guitar	2G 2b 2dd
=61	=61	=61	=61	=61	=61	=61	=61
1vi	A:min	.	.	173.822	.	guitar	1A 1cc 1ee
=62	=62	=62	=62	=62	=62	=62	=62
1vi	A:min	.	.	176.714	.	guitar	1A 1cc 1ee
=63	=63	=63	=63	=63	=63	=63	=63
2I	C:maj	Oh	.	179.607	newline	voice	2C 2e 2g
.	.	.	.	.	.	.	.
.	.	oh	.	.	.	.	.
.	.	oh	.	.	.	.	.
2vi	A:min	oh	.	181.074	.	voice	2A 2cc 2ee
.	.	oh	.	.	.	.	.
.	.	_	.	.	.	.	.
.	.	oh	A	.	.	.	.
=64	=64	=64	=64	=64	=64	=64	=64
2IV	F:maj	_	.	182.542	.	voice	2F 2a 2cc
.	.	.	.	.	.	.	.
2V	G:maj	You	.	184.009	.	voice	2G 2b 2dd
.	.	don't	.	.	.	.	.
.	.	have	.	.	.	.	.
.	.	to	.	.	.	.	.
=65	=65	=65	=65	=65	=65	=65	=65
2I	C:maj	go	A	185.477	.	voice	2C 2e 2g
.	.	_	.	.	.	.	.
.	.	.	.	.	.	.	.
.	.	Oh	.	.	.	.	.
2vi	A:min	oh	.	186.945	.	voice	2A 2cc 2ee
.	.	.	.	.	.	.	.
.	.	oh	.	.	.	.	.
.	.	oh	A	.	.	.	.
=66	=66	=66	=66	=66	=66	=66	=66
2IV	F:maj	_	.	188.412	.	voice	2F 2a 2cc
.	.	.	.	.	.	.	.
2V	G:maj	You	.	189.88	.	voice	2G 2b 2dd
.	.	don't	.	.	.	.	.
.	.	have	.	.	.	.	.
.	.	to	.	.	.	.	.
=67	=67	=67	=67	=67	=67	=67	=67
2I	C:maj	go	A	191.348	newline	voice	2C 2e 2g
.	.	_	.	.	.	.	.
.	.	_	.	.	.	.	.
.	.	Oh	.	.	.	.	.
2vi	A:min	Oh	.	192.794	.	voice	2A 2cc 2ee
.	.	.	.	.	.	.	.
.	.	oh	.	.	.	.	.
.	.	oh	A	.	.	.	.
.	.	_	.	.	.	.	.
=68	=68	=68	=68	=68	=68	=68	=68
2IV	F:maj	_	.	194.241	.	voice	2F 2a 2cc
.	.	.	.	.	.	.	.
.	.	.	.	.	.	.	.
.	.	Oh	.	.	.	.	.
2V	G:maj	_	.	195.688	.	voice	2G 2b 2dd
.	.	ba-	.	.	.	.	.
.	.	-by	.	.	.	.	.
.	.	.	.	.	.	.	.
=69	=69	=69	=69	=69	=69	=69	=69
1vi	A:min	.	.	197.135	.	voice	1A 1cc 1ee
.	.	Babe	.	.	.	.	.
.	.	_	.	.	.	.	.
.	.	.	.	.	.	.	.
.	.	please	.	.	.	.	.
.	.	.	.	.	.	.	.
=70	=70	=70	=70	=70	=70	=70	=70
1vi	A:min	please	.	200.028	.	voice	1A 1cc 1ee
.	.	.	.	.	.	.	.
.	.	please	.	.	.	.	.
.	.	_	.	.	.	.	.
.	.	.	.	.	.	.	.
.	.	please	.	.	.	.	.
.	.	_	.	.	.	.	.
=71	=71	=71	=71	=71	=71	=71	=71
*>Letter>B2	*>Letter>B2	*>Letter>B2	*>Letter>B2	*>Letter>B2	*>Letter>B2	*>Letter>B2	*>Letter>B2
*>Label>Outro	*>Label>Outro	*>Label>Outro	*>Label>Outro	*>Label>Outro	*>Label>Outro	*>Label>Outro	*>Label>Outro
2I	C:maj	.	.	202.922	newline	guitar	2C 2e 2g
.	.	Uh	.	.	.	.	.
.	.	oh	.	.	.	.	.
.	.	uh	.	.	.	.	.
.	.	oh	.	.	.	.	.
.	.	.	.	.	.	.	.
2vi	A:min	uh	.	204.366	.	guitar	2A 2cc 2ee
.	.	oh	.	.	.	.	.
.	.	ba-	.	.	.	.	.
.	.	-by	.	.	.	.	.
=72	=72	=72	=72	=72	=72	=72	=72
2IV	F:maj	.	.	205.81	.	guitar	2F 2a 2cc
.	.	uh	.	.	.	.	.
.	.	oh	.	.	.	.	.
.	.	I	.	.	.	.	.
.	.	rea-	.	.	.	.	.
.	.	-lly	.	.	.	.	.
2V	G:maj	love	.	207.255	.	guitar	2G 2b 2dd
.	.	you	.	.	.	.	.
.	.	ba-	.	.	.	.	.
.	.	-by	.	.	.	.	.
=73	=73	=73	=73	=73	=73	=73	=73
2I	C:maj	.	.	208.699	.	guitar	2C 2e 2g
.	.	Ooh	.	.	.	.	.
.	.	ooh	.	.	.	.	.
.	.	ooh	.	.	.	.	.
.	.	ooh	.	.	.	.	.
.	.	.	.	.	.	.	.
2vi	A:min	ooh	.	210.143	.	guitar	2A 2cc 2ee
.	.	oh	.	.	.	.	.
.	.	dar-	.	.	.	.	.
.	.	_	.	.	.	.	.
.	.	-lin'	.	.	.	.	.
=74	=74	=74	=74	=74	=74	=74	=74
2IV	F:maj	_	.	211.587	.	guitar	2F 2a 2cc
.	.	.	.	.	.	.	.
.	.	.	.	.	.	.	.
2V	G:maj	Oh	.	213.032	.	guitar	2G 2b 2dd
.	.	_	.	.	.	.	.
.	.	_	.	.	.	.	.
=75	=75	=75	=75	=75	=75	=75	=75
2I	C:maj	_	.	214.476	newline	guitar	2C 2e 2g
.	.	.	.	.	.	.	.
2vi	A:min	oh	.	215.926	.	guitar	2A 2cc 2ee
.	.	_	.	.	.	.	.
=76	=76	=76	=76	=76	=76	=76	=76
2IV	F:maj	.	.	217.376	.	guitar	2F 2a 2cc
.	.	.	.	.	.	.	.
.	.	Oh	A	.	.	.	.
.	.	_	.	.	.	.	.
2V	G:maj	_	.	218.827	.	guitar	2G 2b 2dd
.	.	.	.	.	.	.	.
.	.	ba-	.	.	.	.	.
.	.	-by	.	.	.	.	.
.	.	I	.	.	.	.	.
=77	=77	=77	=77	=77	=77	=77	=77
2I	C:maj	still	.	220.277	.	guitar	2.C 2.e 2.g
.	.	_	.	.	.	.	.
.	.	love	.	.	.	.	.
.	.	you	.	.	.	.	.
.	.	so	A	.	.	.	.
2vi	A:min	.	.	221.727	.	guitar	4A 4cc 4ee
.	.	.	.	.	.	.	.
=78	=78	=78	=78	=78	=78	=78	=78
2IV	F:maj	.	.	223.177	.	guitar	2F 2a 2cc
.	.	Oh	A	.	.	.	.
2V	G:maj	ba-	.	224.627	.	guitar	2G 2b 2dd
.	.	-by	.	.	.	.	.
.	.	I	.	.	.	.	.
=79	=79	=79	=79	=79	=79	=79	=79
2I	C:maj	still	.	226.078	newline	guitar	2C 2e 2g
.	.	love	.	.	.	.	.
.	.	you	.	.	.	.	.
.	.	so	A	.	.	.	.
.	.	_	.	.	.	.	.
2vi	A:min	_	.	227.525	.	guitar	2A 2cc 2ee
.	.	.	.	.	.	.	.
.	.	Oh	A	.	.	.	.
.	.	_	.	.	.	.	.
.	.	_	.	.	.	.	.
=80	=80	=80	=80	=80	=80	=80	=80
2IV	F:maj	_	.	228.972	.	guitar	2F 2a 2cc
.	.	.	.	.	.	.	.
2V	G:maj	Oh	.	230.42	.	guitar	2G 2b 2dd
=81	=81	=81	=81	=81	=81	=81	=81
2I	C:maj	.	.	231.867	.	guitar	2C 2e 2g
.	.	Oh	.	.	.	.	.
.	.	Oh	.	.	.	.	.
.	.	Oh	.	.	.	.	.
2vi	A:min	Oh	.	233.315	.	guitar	2A 2cc 2ee
.	.	oh	.	.	.	.	.
.	.	_	.	.	.	.	.
.	.	oh	.	.	.	.	.
=82	=82	=82	=82	=82	=82	=82	=82
2IV	F:maj	_	.	234.762	.	guitar	2F 2a 2cc
2V	G:maj	.	.	236.209	.	guitar	2G 2b 2dd
.	.	Yeah	.	.	.	.	.
.	.	_	.	.	.	.	.
=83	=83	=83	=83	=83	=83	=83	=83
2I	C:maj	.	.	237.657	newline	guitar	2C 2e 2g
.	.	Ah	.	.	.	.	.
.	.	Ah	.	.	.	.	.
.	.	ah	.	.	.	.	.
2vi	A:min	ah	.	239.079	.	guitar	2A 2cc 2ee
.	.	ah	.	.	.	.	.
.	.	_	.	.	.	.	.
.	.	ah	.	.	.	.	.
=84	=84	=84	=84	=84	=84	=84	=84
2IV	F:maj	_	.	240.501	.	guitar	2F 2a 2cc
.	.	.	.	.	.	.	.
2V	G:maj	.	.	241.923	.	guitar	2G 2b 2dd
.	.	Oh	.	.	.	.	.
.	.	_	.	.	.	.	.
.	.	_	.	.	.	.	.
=85	=85	=85	=85	=85	=85	=85	=85
2I	C:maj	_	.	243.346	.	guitar	2C 2e 2g
.	.	.	.	.	.	.	.
.	.	Ah	.	.	.	.	.
.	.	ah	.	.	.	.	.
2vi	A:min	ah	.	244.768	.	guitar	2A 2cc 2ee
.	.	ah	.	.	.	.	.
.	.	_	.	.	.	.	.
.	.	.	.	.	.	.	.
=86	=86	=86	=86	=86	=86	=86	=86
2IV	F:maj	ah	.	246.19	.	guitar	2F 2a 2cc
.	.	_	.	.	.	.	.
.	.	.	.	.	.	.	.
2V	G:maj	.	.	247.613	.	guitar	2G 2b 2dd
=87	=87	=87	=87	=87	=87	=87	=87
*>Label>>Fadeout	*>Label>>Fadeout	*>Label>>Fadeout	*>Label>>Fadeout	*>Label>>Fadeout	*>Label>>Fadeout	*>Label>>Fadeout	*>Label>>Fadeout
2I	C:maj	Ooh	.	249.035	newline	guitar	2C 2e 2g
2vi	A:min	_	.	250.373	.	guitar	2A 2cc 2ee
.	.	_	.	.	.	.	.
=88	=88	=88	=88	=88	=88	=88	=88
2IV	F:maj	_	.	251.711	.	guitar	2F 2a 2cc
2V	G:maj	_	.	253.049	.	guitar	2G 2b 2dd
.	.	_	.	.	.	.	.
=89	=89	=89	=89	=89	=89	=89	=89
2I	C:maj	ooh	.	254.387	.	guitar	3...C 3...e 3...g
.	.	_	.	.	.	.	.
.	.	_	.	.	.	.	.
.	.	yeah	.	.	.	.	.
.	.	_	.	.	.	.	.
2vi	A:min	.	.	255.725	.	guitar	4.A 4.cc 4.ee
.	.	_	.	.	.	.	.
.	.	.	.	.	.	.	.
=90	=90	=90	=90	=90	=90	=90	=90
2IV	F:maj	.	.	257.063	.	guitar	1F 1a 1cc
2V	G:maj	.	.	258.4	.	guitar	2G 2b 2dd
1r;	N	.	.	259.738	.	r	1r;
1r;	N	.	.	263.236	.	r	1r;
*-	*-	*-	*-	*-	*-	*-	*-
!!!BillboardChartDate: 1973/11/24
!!!BillboardPeak: 20
!!!BillboardWeeksOnChart: 16
!!!COC: Led Zeppelin
!!!ENC: Nathaniel Condit-Schultz
!!!EST: Awating manual error checking and editing.
!!!OTL: D'yer Mak'er
!!!RDF**harte: Chris Harte's syntax, used by MIREX
!!!RDF**harmony: **recip + pitch class of root + harmonic quality
!!!RDF**leadinstrument: original McGill primary instrumentation annotation
!!!RDF**phrase: newline = linebreak in original McGill transcription
!!!RDF**timestamp: McGill audio timestamp in seconds
!!!RDT: 2017/01/12/
!!!SampleActualRank: 40
!!!SampleID#: 0749
!!!SampleTargetRank: 39
!!!MBID: 0cfbca12-01e1-4014-932e-e634293ba770
